X:1
T:John Ambrose Lloyd
T:Kilmorey
%%score { ( 1 2 ) | ( 3 4 ) }
L:1/8
Q:1/4=184
M:4/2
K:Bb
V:1 treble 
V:2 treble 
V:3 bass 
V:4 bass 
V:1
"^Presto" G4 | G6 A2 B4 c4 | d8 A4 A4 | B6 A2 G4 B4 | A12 ^F4 | G6 A2 B4 c4 | d8 B4 d4 | %7
 d4 c4 B4 A4 | B12 d4 | d6 c2 B4 d4 | c8 A4 A4 | B6 A2 G4 B4 | A12 ^F4 | G6 A2 B4 c4 | d8 e4 d4 | %15
 d4 c4 B4 A4 | G12 | G8 G8 |] %18
V:2
 D4 | D6 D2 D4 G4 | G8 ^F4 F4 | G6 ^F2 G4 G4 | ^F12 D4 | D6 ^F2 G4 =F4 | F8 G4 F4 | G4 G4 F4 F4 | %8
 F12 F4 | F6 F2 F4 F4 | F8 F4 E4 | D6 ^F2 G4 G4 | ^F12 D4 | D6 ^F2 G4 G4 | G8 ^F4 G4 | %15
 G4 G4 G4 ^F4 | G12 | E8 D8 |] %18
V:3
 B,4 | B,6 C2 B,4 G,4 | A,8 D4 C4 | B,6 C2 D4 D4 | D12 A,4 | D6 D2 D4 C4 | B,8 D4 B,4 | %7
 B,4 C4 D4 E4 | D12 B,4 | B,6 A,2 B,4 B,4 | A,8 C4 C4 | B,6 D2 D4 D4 | D12 A,4 | D6 D2 D4 C4 | %14
 B,8 A,4 B,4 | D4 E4 D4 C4 | B,12 | C8 =B,8 |] %18
V:4
 G,4 | G,6 ^F,2 G,4 E,4 | D,8 D,4 D,4 | G,6 A,2 B,4 G,4 | D,12 D,4 | B,,6 D,2 G,4 A,4 | %6
 B,8 G,4 D,4 | E,4 E,4 F,4 F,4 | B,,12 B,,4 | B,6 F,2 D,4 B,,4 | F,8 F,4 ^F,4 | G,6 D,2 B,,4 G,,4 | %12
 D,12 C,4 | B,,6 D,2 G,4 E,4 | D,8 C,4 B,,4 | B,,4 C,4 D,4 D,4 | G,12 | C,8 G,,8 |] %18

